Sources/FrostedUI/Resources/Icons.xcassets/headphones24.imageset/headphones-24.svg

<svg width="24" height="24" viewBox="0 0 24 24" fill="none" xmlns="http://www.w3.org/2000/svg" data-fui-icon="true">
  <path
    d="M12 1.875C15.5735 1.875 18.1356 3.17487 19.792 5.1416C21.4305 7.08733 22.125 9.61565 22.125 12V16.5C22.125 16.5332 22.1214 16.5656 22.1172 16.5977C22.122 16.6895 22.125 16.782 22.125 16.875C22.125 19.7745 19.7745 22.125 16.875 22.125C15.6324 22.125 14.625 21.1176 14.625 19.875V13.875C14.625 12.6324 15.6324 11.625 16.875 11.625C18.3444 11.625 19.6721 12.2293 20.625 13.2021V12C20.625 9.88452 20.0068 7.72513 18.6455 6.1084C17.3019 4.51285 15.1763 3.375 12 3.375C8.82375 3.375 6.69811 4.51285 5.35449 6.1084C3.99323 7.72513 3.375 9.88452 3.375 12V13.2021C4.32794 12.2293 5.65563 11.625 7.125 11.625C8.36764 11.625 9.375 12.6324 9.375 13.875V19.875C9.375 21.1176 8.36764 22.125 7.125 22.125C4.22551 22.125 1.875 19.7745 1.875 16.875C1.875 16.782 1.87706 16.6895 1.88184 16.5977C1.87767 16.5657 1.875 16.5331 1.875 16.5V12C1.875 9.61565 2.5695 7.08733 4.20801 5.1416C5.8644 3.17487 8.42649 1.875 12 1.875ZM7.125 13.125C5.05393 13.125 3.375 14.8039 3.375 16.875C3.375 18.9461 5.05393 20.625 7.125 20.625C7.53921 20.625 7.875 20.2892 7.875 19.875V13.875C7.875 13.4608 7.53921 13.125 7.125 13.125ZM16.875 13.125C16.4608 13.125 16.125 13.4608 16.125 13.875V19.875C16.125 20.2892 16.4608 20.625 16.875 20.625C18.9461 20.625 20.625 18.9461 20.625 16.875C20.625 14.8039 18.9461 13.125 16.875 13.125Z"
    fill="currentColor"
  />
</svg>

<svg xmlns="http://www.w3.org/2000/svg" width="24" height="24" fill="none" data-fui-icon="true" viewBox="0 0 24 24"><path fill="currentColor" d="M12 1.875c3.573 0 6.136 1.3 7.792 3.267C21.43 7.087 22.125 9.616 22.125 12v4.5a1 1 0 0 1-.008.098q.008.137.008.277c0 2.9-2.35 5.25-5.25 5.25a2.25 2.25 0 0 1-2.25-2.25v-6a2.25 2.25 0 0 1 2.25-2.25c1.47 0 2.797.604 3.75 1.577V12c0-2.115-.618-4.275-1.98-5.892C17.303 4.513 15.176 3.375 12 3.375S6.698 4.513 5.354 6.108C3.994 7.725 3.375 9.885 3.375 12v1.202a5.23 5.23 0 0 1 3.75-1.577 2.25 2.25 0 0 1 2.25 2.25v6a2.25 2.25 0 0 1-2.25 2.25 5.25 5.25 0 0 1-5.243-5.527 1 1 0 0 1-.007-.098V12c0-2.384.695-4.913 2.333-6.858C5.864 3.175 8.426 1.875 12 1.875m-4.875 11.25a3.75 3.75 0 1 0 0 7.5.75.75 0 0 0 .75-.75v-6a.75.75 0 0 0-.75-.75m9.75 0a.75.75 0 0 0-.75.75v6c0 .414.336.75.75.75a3.75 3.75 0 1 0 0-7.5"/></svg>
